X:28
T:Ka-foo-zalum
B:Join The Band
M:C
L:1/8
K:G
P:A
"G"d2 d>c B>c d2|"D"A>B c>B A>B c2|\
"G"d>e d>c B>c d>g|"G"G>A G>G "D"A2 "G"G2:|
P:B
"G"B>G D>G B>G B2|"D"c>A F>A c>A c2|\
"G"B>G D>G B>G B2|"G"G>A B>G "D"A2 "G"G2:|

